packages/tokens/icons/download/size24Px.svg

<svg viewBox="0 0 24 24" fill="none" xmlns="http://www.w3.org/2000/svg" width="1em" height="1em"><path d="M11.9999 2L11.9999 16" stroke="currentColor" stroke-linecap="round" stroke-linejoin="round"/><path d="M16.9999 11.2856L11.9999 16.2856L6.99988 11.2856" stroke="currentColor" stroke-linecap="round" stroke-linejoin="round"/><path d="M3.99988 18V20C3.99988 21.1046 4.89531 22 5.99988 22H17.9999C19.1044 22 19.9999 21.1046 19.9999 20V18" stroke="currentColor" stroke-linecap="round" stroke-linejoin="round"/></svg>

<svg xmlns="http://www.w3.org/2000/svg" fill="none" viewBox="0 0 24 24" width="1em" height="1em"><path stroke="currentColor" stroke-linecap="round" stroke-linejoin="round" d="M12 2v14m5-4.714-5 5-5-5M4 18v2a2 2 0 0 0 2 2h12a2 2 0 0 0 2-2v-2"/></svg>
